src/icons/vfl.svg

<svg viewBox="0 0 24 24" xmlns="http://www.w3.org/2000/svg">
<path d="M19.97 3H4.03C3.757 3 3.49517 3.10849 3.30203 3.30162C3.1089 3.49475 3.00026 3.75674 3 4.03V8.166C4.548 6.976 6.563 6.208 8.948 6.208C14.055 6.212 17.298 9.783 17.296 14.29C17.296 17.42 15.836 19.775 13.551 21H19.97C20.1054 21 20.2395 20.9733 20.3646 20.9213C20.4897 20.8694 20.6034 20.7933 20.699 20.6973C20.7947 20.6014 20.8705 20.4875 20.9222 20.3622C20.9738 20.2368 21.0003 20.1026 21 19.967V4.031C20.9997 3.75774 20.8911 3.49575 20.698 3.30262C20.5048 3.10949 20.243 3 19.97 3Z" fill="#F05223"/>
<path d="M3 17.722V19.969C3 20.2424 3.10852 20.5047 3.30168 20.698C3.49484 20.8914 3.75683 21 4.03 21H5.867C4.474 20.21 3.49 19 3 17.722Z" fill="#F05223"/>
<path d="M8.948 8.23C6.362 8.142 4.35 9.09 3 10.496V13.658C3.918 11.005 6.447 9.788 8.565 9.809C11.212 9.836 13.254 11.834 13.265 14.093C13.277 16.251 12.373 17.841 9.935 18.233C8.605 18.446 6.525 17.665 6.617 15.655C6.663 14.618 7.471 14.033 8.394 14.075C7.49 15.288 8.687 16.177 9.533 15.995C10.581 15.772 11.008 14.84 11.008 14.118C11.008 13.356 10.291 12.124 8.51 12.166C6.306 12.219 4.92 13.806 4.872 15.769C4.816 18.237 7.126 19.86 9.495 19.889C12.973 19.935 15.037 17.649 15.033 14.304C15.028 11.274 12.599 8.358 8.948 8.232V8.23Z" fill="#F05223"/>
</svg>

<svg xmlns="http://www.w3.org/2000/svg" viewBox="0 0 24 24">
  <defs>
    <radialGradient
      id="a"
      cx="205.45"
      cy="208.29"
      r="225.35"
      gradientTransform="matrix(.04556 0 0 .0456 2.888 2.88)"
      gradientUnits="userSpaceOnUse"
    >
      <stop stop-color="#ffd104" offset="0" />
      <stop stop-color="#faa60e" offset=".35" />
      <stop stop-color="#f05023" offset="1" />
    </radialGradient>
  </defs>
  <g stroke-width=".046">
    <path
      class="a"
      d="M19.97 3H4.03A1.03 1.031 0 0 0 3 4.03v4.136c1.548-1.19 3.563-1.958 5.948-1.958 5.107.004 8.35 3.575 8.348 8.082 0 3.13-1.46 5.485-3.745 6.71h6.419A1.03 1.031 0 0 0 21 19.967V4.031a1.03 1.031 0 0 0-1.03-1.03z"
      fill="#f05223"
    />
    <path
      d="M3 17.722v2.247A1.03 1.031 0 0 0 4.03 21h1.837C4.474 20.21 3.49 19 3 17.722z"
      fill="url(#a)"
      style="fill: url(#a)"
    />
    <path
      class="a"
      d="M8.948 8.23C6.362 8.142 4.35 9.09 3 10.496v3.162c.918-2.653 3.447-3.87 5.565-3.849 2.647.027 4.689 2.025 4.7 4.284.012 2.158-.892 3.748-3.33 4.14-1.33.213-3.41-.568-3.318-2.578.046-1.037.854-1.622 1.777-1.58-.904 1.213.293 2.102 1.139 1.92 1.048-.223 1.475-1.155 1.475-1.877 0-.762-.717-1.994-2.498-1.952-2.204.053-3.59 1.64-3.638 3.603-.056 2.468 2.254 4.091 4.623 4.12 3.478.046 5.542-2.24 5.538-5.585-.005-3.03-2.434-5.946-6.085-6.072z"
      fill="#f05223"
    />
  </g>
</svg>
